src/assets/icons/stroke/bold.svg

<svg width="1em" height="1em" viewBox="0 0 24 24" fill="none" xmlns="http://www.w3.org/2000/svg">
    <path
        d="M15.2504 11.8C15.74 11.5018 16.1532 11.0934 16.4571 10.6073C16.7609 10.1212 16.9469 9.57077 17.0004 9C17.0097 8.48388 16.9172 7.971 16.7282 7.49063C16.5392 7.01027 16.2575 6.57184 15.899 6.20039C15.5406 5.82894 15.1124 5.53174 14.6391 5.32578C14.1658 5.11981 13.6565 5.00911 13.1404 5H6.65039V19H13.6504C14.1415 18.9948 14.6269 18.8929 15.0786 18.7001C15.5304 18.5073 15.9397 18.2274 16.2833 17.8764C16.6269 17.5253 16.898 17.1101 17.0811 16.6543C17.2642 16.1985 17.3557 15.7112 17.3504 15.22V15.1C17.3507 14.4071 17.1533 13.7285 16.7813 13.144C16.4093 12.5594 15.8782 12.0931 15.2504 11.8ZM8.65039 7H12.8504C13.2766 6.98681 13.6966 7.10428 14.0541 7.33665C14.4116 7.56902 14.6894 7.90517 14.8504 8.3C15.0133 8.82779 14.9606 9.39859 14.7039 9.88765C14.4472 10.3767 14.0073 10.7443 13.4804 10.91C13.2758 10.97 13.0636 11.0003 12.8504 11H8.65039V7ZM13.2504 17H8.65039V13H13.2504C13.6766 12.9868 14.0966 13.1043 14.4541 13.3367C14.8116 13.569 15.0894 13.9052 15.2504 14.3C15.4133 14.8278 15.3606 15.3986 15.1039 15.8877C14.8472 16.3767 14.4073 16.7443 13.8804 16.91C13.6758 16.97 13.4636 17.0003 13.2504 17Z"
        fill="currentColor" />
</svg>

<svg xmlns="http://www.w3.org/2000/svg" width="1em" height="1em" fill="none"><path fill="currentColor" d="M15.25 11.8A3.68 3.68 0 0 0 17 9a3.93 3.93 0 0 0-3.86-4H6.65v14h7a3.74 3.74 0 0 0 3.7-3.78v-.12a3.64 3.64 0 0 0-2.1-3.3ZM8.65 7h4.2a2.09 2.09 0 0 1 2 1.3 2.09 2.09 0 0 1-2 2.7h-4.2V7Zm4.6 10h-4.6v-4h4.6a2.09 2.09 0 0 1 2 1.3 2.09 2.09 0 0 1-2 2.7Z"/></svg>
